public/images/hero_area/star_1.svg

<svg width="61" height="60" viewBox="0 0 61 60" fill="none" xmlns="http://www.w3.org/2000/svg">
<path d="M30.5 0L32.8344 24.4567L52.0668 8.7868L36.1357 27.7039L61 30L36.1357 32.2961L52.0668 51.2132L32.8344 35.5433L30.5 60L28.1656 35.5433L8.93324 51.2132L24.8643 32.2961L0 30L24.8643 27.7039L8.93324 8.7868L28.1656 24.4567L30.5 0Z" fill="white"/>
</svg>

<svg xmlns="http://www.w3.org/2000/svg" width="61" height="60" fill="none"><path fill="#fff" d="m30.5 0 2.334 24.457 19.233-15.67-15.931 18.917L61 30l-24.864 2.296 15.93 18.917-19.232-15.67L30.5 60l-2.334-24.457-19.233 15.67 15.931-18.917L0 30l24.864-2.296L8.934 8.787l19.232 15.67L30.5 0Z"/></svg>
